app/dist/common/images/motorpoint-plc.svg

<svg fill="none" height="18" viewBox="0 0 18 18" width="18" xmlns="http://www.w3.org/2000/svg"><path d="m0 0h18v18h-18z" fill="#f0f3fa"/><g clip-rule="evenodd" fill-rule="evenodd"><path d="m9 4c2.7614 0 5 2.23857 5 5 0 2.7614-2.2386 5-5 5-2.76143 0-5-2.2386-5-5 0-2.76143 2.23857-5 5-5z" fill="#e84910"/><path d="m9 5c2.2091 0 4 1.79086 4 4 0 2.2091-1.7909 4-4 4-2.20914 0-4-1.7909-4-4 0-2.20914 1.79086-4 4-4z" fill="#004996"/><path d="m11.5 10c.2761 0 .5.2239.5.5s-.2239.5-.5.5-.5-.2239-.5-.5.2239-.5.5-.5z" fill="#e84910"/><path d="m6 11h1v-2.16535c0-.47103.26204-.83465.72155-.83465s.77845.36362.77845.83465v2.16535h1v-2.23529c0-.97061-.83159-1.76471-1.77845-1.76471-.94687 0-1.72155.7941-1.72155 1.76471z" fill="#fff"/><path d="m8.55682 11h.94312v-2.16535c0-.47103.31893-.83465.77846-.83465.4595 0 .7215.36363.7215.83465v.66535h1v-.73529c0-.97061-.7747-1.76471-1.7215-1.76471-.94689 0-1.72158.7941-1.72158 1.76471z" fill="#fff"/></g></svg>

<!-- by TradingView --><svg width="18" height="18" viewBox="0 0 18 18" fill="none" xmlns="http://www.w3.org/2000/svg">
<rect width="18" height="18" fill="#F0F3FA"/>
<path fill-rule="evenodd" clip-rule="evenodd" d="M9 4C11.7614 4 14 6.23857 14 9C14 11.7614 11.7614 14 9 14C6.23857 14 4 11.7614 4 9C4 6.23857 6.23857 4 9 4Z" fill="#E84910"/>
<path fill-rule="evenodd" clip-rule="evenodd" d="M9 5C11.2091 5 13 6.79086 13 9C13 11.2091 11.2091 13 9 13C6.79086 13 5 11.2091 5 9C5 6.79086 6.79086 5 9 5Z" fill="#004996"/>
<path fill-rule="evenodd" clip-rule="evenodd" d="M11.5 10C11.7761 10 12 10.2239 12 10.5C12 10.7761 11.7761 11 11.5 11C11.2239 11 11 10.7761 11 10.5C11 10.2239 11.2239 10 11.5 10Z" fill="#E84910"/>
<path fill-rule="evenodd" clip-rule="evenodd" d="M6 11H7V8.83465C7 8.36362 7.26204 8 7.72155 8C8.18106 8 8.5 8.36362 8.5 8.83465V11H9.5V8.76471C9.5 7.7941 8.66841 7 7.72155 7C6.77468 7 6 7.7941 6 8.76471V11Z" fill="white"/>
<path fill-rule="evenodd" clip-rule="evenodd" d="M8.55682 11H9.49994V8.83465C9.49994 8.36362 9.81887 8 10.2784 8C10.7379 8 10.9999 8.36363 10.9999 8.83465L10.9999 9.5H11.9999L11.9999 8.76471C11.9999 7.7941 11.2252 7 10.2784 7C9.33151 7 8.55682 7.7941 8.55682 8.76471V11Z" fill="white"/>
</svg>
